X: 25
T: Perro
%%VWML:Wrights-3753-p13-0
F: http://www.vwml.org/record/Wrights/3753/p13
B: Daniel Wright "Wright's Compleat Collection of Celebrated Country Dances" 1740 p.13
S: http://library.efdss.org/cgi-bin/dancebooks.cgi
Z: 2014 John Chambers <jc:trillian.mit.edu>
N: The 2nd strain has initial repeat but no final repeat; not fixed.
M: C|
L: 1/8
K: D
%-------------------------
de |\
f2d2 a2A2 | dcde d2d2 |\
A2d2 edcB | A6 :: AG |\
F2D2 F2G2 | A4- Adcd |
Adcd Adcd | TF4 def2 |\
B2B2 efg2 | c2c2 fga2 |\
d2e2 A2dc | d6 |] %------------------------- %%begintext align
%% The 1st Cu. set and cast off .| the same %% a Cu. lower :| lead up two Cu. foot
%% it, cast off and turn .| lead thro
%% Bottom and Top cast off and turn. %%endtext %------------------------- %%sep 2 4 300
T: Bessey Bell
%R: jig
B: Daniel Wright "Wright's Compleat Collection of Celebrated Country Dances" 1740 p.13
S: http://library.efdss.org/cgi-bin/dancebooks.cgi
Z: 2014 John Chambers <jc:trillian.mit.edu>
M: 6/8
L: 1/8
K: D
%-------------------------
A |\
F>GA ABc | B>AB G2G | FGA AFD | f3 g3 |\
aAA ABc | BAG g2f/g/ | agf edc | d3 f2 |]
f/g/ |\
afd faf | ece efg | afd faf | e3 g2f/g/ |\
afd faf | ece efg | agf edc | d3 f2 |]
%-------------------------
%%begintext align
%% Two 1st Cu. fall back and cross over and
%% so back again to the Places :| Cross
%% over and figure in .| lead thro' the
%% 3d Cu. cast up and turn Hands.
%%endtext
%-------------------------
%%sep 2 4 300
